X:1
T:Title
%%score { 1 | ( 2 3 ) }
L:1/8
Q:1/4=92
M:4/4
K:Eb
V:1 treble nm="Grand Piano"
V:2 bass 
V:3 bass 
V:1
 [B,G]3 G _G=G B>A | G4 E4 | F3 F =EF A>G | [G,E]6 z2 | [EGB]3 B =AB d>c | [GB]4 G4 | %6
w: Wm.~J.~Kirkpatrick * * * * *||||||
 F3 F =EF G>=A | [DB]6 z2 | [DA]3 [DG] [DA][DG][DA][Dc] | B4 G4 | E3 D EDE[CF] | [=B,DG]8 | %12
w: ||||||
 [EAc]3 =B cedc |[M:5/4] [GB]2 [Ge]6 EE | %14
w: ||
[M:9/8] F2 G- G B2- B[CFB][CFA][Q:1/4=91][Q:1/4=89][Q:1/4=88][Q:1/4=87][Q:1/4=85][Q:1/4=84][Q:1/4=83][Q:1/4=81][Q:1/4=80] | %15
w: |
[M:4/4] [B,EG]2 [A,DF]2 [G,B,E]4[Q:1/4=78][Q:1/4=77][Q:1/4=76][Q:1/4=74][Q:1/4=73][Q:1/4=72][Q:1/4=70] |] %16
w: |
V:2
 E,2 z B, =A,B, D>C | [E,B,]4 [E,G,]4 | A,3 A, G,A, C>B, | E,6 z2 | %4
 E,2 z[K:treble] [EG] [E_G][E=G] [EA]>[EA] | [E,E]4 [E,B,E]4 | %6
 [F,B,D]3 [F,B,D] [F,B,_D][F,B,=D] [F,B,E]>[F,CE] | [B,,B,]6 z2 | %8
 [B,,F,]3 [B,,=E,] [B,,F,][B,,E,][B,,F,][B,,A,] | [E,G,E]4 [E,B,]4 | %10
 [C,G,C]3 [C,F,C] [C,G,C][C,F,C][C,G,C]A,, | G,,8 | A,2 z[K:treble] [DA] [EA][CA][B,A][EA] | %13
[M:5/4][K:bass] [E,E]2 [E,B,]6 [E,G,B,][E,G,B,] | %14
[M:9/8] [A,C]2 [G,C=E]- [G,CE] [F,CF]2- [F,CF]A,,A,, |[M:4/4] B,,2 B,,2 E,4 |] %16
V:3
 x8 | x8 | B,,2 z2 z4 | x8 | x3[K:treble] x5 | x8 | x8 | x8 | x8 | x8 | x8 | x8 | x3[K:treble] x5 | %13
[M:5/4][K:bass] x10 |[M:9/8] x9 |[M:4/4] x8 |] %16

